X:257
T:Duke of Yorks March
C:No 257 William Clarke of Feltwell
M:4/4
L:1/8
N:In m.s. bars A4,A6,A8 and B12 are a crotchet short - added here.
K:C
C2C>CE2E>E|GEGEC2GG|cGcG cGEC|G2G>G(G2G2)|g3ec2c2|d2df(e2e2)|g3e ecfe|d2d>d(d2d2)::G2G>G Gceg|G2G>GGceg|(fd).d.d (ec).c.c|agfee2d2|c3e/d/ cGAB|BAA2zBcde|ffee ddcc|d2d>dd2z2|C2C>CE2E>E|GEGEC2f2|egge fdcB|c2c>c(c2c2):|

